libs/icons/src/svg/folder.svg

<svg width="16" height="16" viewBox="0 0 16 16" fill="none" xmlns="http://www.w3.org/2000/svg">
<g clip-path="url(#clip0_3_3336)">
<path fill-rule="evenodd" clip-rule="evenodd" d="M0 1.33334C0 0.965149 0.298477 0.666672 0.666667 0.666672H6C6.20984 0.666672 6.40743 0.765468 6.53333 0.933338L8.33333 3.33334H15.3333C15.7015 3.33334 16 3.63182 16 4.00001V13.3333C16 13.8638 15.7893 14.3725 15.4142 14.7476C15.0391 15.1226 14.5304 15.3333 14 15.3333H2C1.46957 15.3333 0.960859 15.1226 0.585786 14.7476C0.210714 14.3725 0 13.8638 0 13.3333V1.33334ZM1.33333 2.00001V13.3333C1.33333 13.5101 1.40357 13.6797 1.5286 13.8047C1.65362 13.9298 1.82319 14 2 14H14C14.1768 14 14.3464 13.9298 14.4714 13.8047C14.5964 13.6797 14.6667 13.5101 14.6667 13.3333V4.66667H8C7.79016 4.66667 7.59257 4.56788 7.46667 4.40001L5.66667 2.00001H1.33333Z" fill="#202327"/>
</g>
<defs>
<clipPath id="clip0_3_3336">
<rect width="16" height="16" fill="white"/>
</clipPath>
</defs>
</svg>

<svg xmlns="http://www.w3.org/2000/svg" viewBox="0 0 16 16" class="sageicon"><path fill-rule="evenodd" d="M0 1.333C0 .965.298.667.667.667H6c.21 0 .407.098.533.266l1.8 2.4h7c.368 0 .667.299.667.667v9.333a2 2 0 0 1-2 2H2a2 2 0 0 1-2-2v-12ZM1.333 2v11.333A.667.667 0 0 0 2 14h12a.666.666 0 0 0 .667-.667V4.667H8a.667.667 0 0 1-.533-.267L5.667 2H1.333Z"/></svg>
